icons/4_Outdated/Sendinblue.svg

<svg width="1024" height="1024" fill="none" xmlns="http://www.w3.org/2000/svg"><g clip-path="url(#a)"><path d="M512 1024c282.77 0 512-229.23 512-512S794.77 0 512 0 0 229.23 0 512s229.23 512 512 512Z" fill="#9ABEFF"/><path d="M740.54 378.849a142.7 142.7 0 0 0-87.73-67.63 148.887 148.887 0 0 0-23.51-4.06 142.77 142.77 0 0 0-235 0 144 144 0 0 0-111.45 71.59 145.493 145.493 0 0 0-5.54 133.25 146.118 146.118 0 0 0 5.56 133 142.994 142.994 0 0 0 87.73 67.63 136.152 136.152 0 0 0 24 4.06 142.564 142.564 0 0 0 117.5 61.832 142.558 142.558 0 0 0 117.5-61.832 144.178 144.178 0 0 0 111.705-72.049 144.191 144.191 0 0 0 5.295-132.821 145.817 145.817 0 0 0-6.09-133l.03.03Zm-35.42 21.07a100.37 100.37 0 0 1 12.13 65.08 146.184 146.184 0 0 0-196.25-.24c-6.37-40.28 12.84-80.33 48.55-101.19a98.425 98.425 0 0 1 110.124 7.019 98.443 98.443 0 0 1 25.396 29.321l.05.01Zm-193.59-107.39a96.008 96.008 0 0 1 60.56 21.91 146.709 146.709 0 0 0-28.53 12.56 143.002 143.002 0 0 0-66.95 153.61 97.689 97.689 0 0 1-61.28-90.73c-.23-53.15 42.74-96.52 96.2-97.08v-.27Zm-192.22 109.78a99.404 99.404 0 0 1 50-41.85 140.461 140.461 0 0 0-3.61 30.7c-.18 61.67 41 116.41 101.93 135.47a99.698 99.698 0 0 1-111.6 9c-48-27.29-64.55-86.54-37.2-133.32h.48Zm-.48 221.69a99.327 99.327 0 0 1-12-65 151.564 151.564 0 0 0 25 18.38 145.806 145.806 0 0 0 72.84 19.53 148.929 148.929 0 0 0 37.48-4.91 145.543 145.543 0 0 0 60.85-32.87c6.35 40.29-12.8 80.34-48.45 101.3a99.577 99.577 0 0 1-110.548-6.929 99.564 99.564 0 0 1-25.702-29.201l.53-.3Zm193.67 107.27a95.622 95.622 0 0 1-60.59-22.1 139.938 139.938 0 0 0 28.54-12.38 142.8 142.8 0 0 0 67-153.44A97.562 97.562 0 0 1 607 651.519c-8.45 45.52-47.92 78.9-94.54 80l.04-.25Zm182.61-109.62a95.998 95.998 0 0 1-48.49 41.89 138.477 138.477 0 0 0 3.51-30.73c.14-61.72-39.82-116.49-98.94-135.6a95.68 95.68 0 0 1 36.11-18.74 94.708 94.708 0 0 1 72.22 10.24 98.333 98.333 0 0 1 35.59 133.29v-.35Z" fill="#fff"/></g><defs><clipPath id="a"><path fill="#fff" d="M0 0h1024v1024H0z"/></clipPath></defs></svg>

<svg width="1024" height="1024" viewBox="0 0 1024 1024" fill="none" xmlns="http://www.w3.org/2000/svg">
<g clip-path="url(#clip0_3_668)">
<path d="M512 1024C794.77 1024 1024 794.77 1024 512C1024 229.23 794.77 0 512 0C229.23 0 0 229.23 0 512C0 794.77 229.23 1024 512 1024Z" fill="#9ABEFF"/>
<path d="M740.54 378.849C731.163 362.298 718.571 347.788 703.505 336.174C688.439 324.56 671.203 316.075 652.81 311.219C645.094 309.239 637.232 307.881 629.3 307.159C616.17 288.136 598.617 272.585 578.15 261.843C557.683 251.101 534.914 245.488 511.8 245.488C488.685 245.488 465.916 251.101 445.449 261.843C424.982 272.585 407.43 288.136 394.3 307.159C371.349 309.301 349.248 316.921 329.854 329.379C310.461 341.836 294.341 358.768 282.85 378.749C271.37 398.91 264.877 421.523 263.914 444.702C262.95 467.882 267.543 490.956 277.31 511.999C267.638 533.025 263.098 556.046 264.065 579.169C265.031 602.292 271.477 624.855 282.87 644.999C292.26 661.54 304.856 676.041 319.92 687.654C334.984 699.267 352.214 707.758 370.6 712.629C378.462 714.696 386.495 716.055 394.6 716.689C407.699 735.755 425.241 751.347 445.712 762.12C466.183 772.892 488.967 778.521 512.1 778.521C535.232 778.521 558.017 772.892 578.487 762.12C598.958 751.347 616.5 735.755 629.6 716.689C652.634 714.523 674.808 706.845 694.25 694.305C713.693 681.765 729.832 664.73 741.305 644.64C752.779 624.55 759.249 601.993 760.171 578.876C761.092 555.759 756.438 532.759 746.6 511.819C756.216 490.759 760.68 467.712 759.621 444.584C758.562 421.456 752.011 398.913 740.51 378.819L740.54 378.849ZM705.12 399.919C716.407 419.616 720.683 442.559 717.25 464.999C690.396 440.621 655.439 427.095 619.171 427.051C582.902 427.007 547.912 440.447 521 464.759C514.63 424.479 533.84 384.429 569.55 363.569C580.807 356.952 593.269 352.641 606.209 350.888C619.149 349.134 632.308 349.973 644.921 353.355C657.534 356.737 669.347 362.595 679.674 370.588C690 378.58 698.633 388.548 705.07 399.909L705.12 399.919ZM511.53 292.529C533.637 292.642 555.028 300.381 572.09 314.439C562.161 317.601 552.596 321.811 543.56 326.999C517.66 342.307 497.248 365.392 485.228 392.971C473.208 420.55 470.192 451.217 476.61 480.609C458.502 473.336 442.987 460.807 432.065 444.636C421.143 428.465 415.314 409.393 415.33 389.879C415.1 336.729 458.07 293.359 511.53 292.799V292.529ZM319.31 402.309C330.797 383.134 348.412 368.391 369.31 360.459C366.981 370.529 365.77 380.824 365.7 391.159C365.52 452.829 406.7 507.569 467.63 526.629C452.066 539.129 433.109 546.67 413.212 548.274C393.315 549.879 373.395 545.474 356.03 535.629C308.03 508.339 291.48 449.089 318.83 402.309H319.31ZM318.83 623.999C307.527 604.338 303.292 581.401 306.83 558.999C314.513 565.965 322.89 572.124 331.83 577.379C353.977 590.164 379.097 596.899 404.67 596.909C417.321 596.871 429.915 595.221 442.15 591.999C464.779 586.091 485.652 574.816 503 559.129C509.35 599.419 490.2 639.469 454.55 660.429C443.234 667.017 430.731 671.308 417.756 673.058C404.78 674.807 391.587 673.98 378.931 670.624C366.275 667.268 354.406 661.449 344.002 653.5C333.598 645.551 324.864 635.628 318.3 624.299L318.83 623.999ZM512.5 731.269C490.353 731.141 468.938 723.33 451.91 709.169C461.853 706.116 471.426 701.964 480.45 696.789C506.348 681.522 526.766 658.47 538.797 630.919C550.827 603.368 553.855 572.722 547.45 543.349C568.328 551.745 585.662 567.101 596.515 586.815C607.368 606.528 611.072 629.387 607 651.519C598.55 697.039 559.08 730.419 512.46 731.519L512.5 731.269ZM695.11 621.649C684.221 640.754 667.104 655.542 646.62 663.539C648.934 653.459 650.111 643.152 650.13 632.809C650.27 571.089 610.31 516.319 551.19 497.209C561.744 488.446 574.059 482.055 587.3 478.469C599.417 475.317 612.039 474.599 624.435 476.356C636.832 478.114 648.757 482.313 659.52 488.709C681.758 501.81 697.954 523.129 704.613 548.065C711.271 573.002 707.858 599.557 695.11 621.999V621.649Z" fill="white"/>
</g>
<defs>
<clipPath id="clip0_3_668">
<rect width="1024" height="1024" fill="white"/>
</clipPath>
</defs>
</svg>
